src/assets/images/github.svg

<?xml version="1.0" encoding="UTF-8"?>
<svg width="40px" height="40px" viewBox="0 0 40 40" version="1.1" xmlns="http://www.w3.org/2000/svg" xmlns:xlink="http://www.w3.org/1999/xlink">
    <!-- Generator: Sketch 63.1 (92452) - https://sketch.com -->
    <title>Path</title>
    <desc>Created with Sketch.</desc>
    <g id="Page-1" stroke="none" stroke-width="1" fill="none" fill-rule="evenodd">
        <g id="Home" transform="translate(-737.000000, -643.000000)" fill="#000000" fill-rule="nonzero">
            <g id="github-1" transform="translate(737.000000, 643.000000)">
                <path d="M0,20.3050071 C0,29.8474964 6.4493617,37.7673133 15.1506383,40 C15.0502128,39.7459714 15.0008511,39.3899857 15.0008511,39.0357282 L15.0008511,35.5830129 L12.5004255,35.5830129 C11.1506383,35.5830129 9.89957447,34.9747267 9.34978723,33.8566553 C8.69957447,32.6383549 8.59914894,30.7599257 6.94978723,29.5917398 C6.4493617,29.1856396 6.8493617,28.7795395 7.39914894,28.829654 C8.4493617,29.133797 9.2987234,29.8457684 10.0987234,30.9102691 C10.8987234,31.976498 11.2493617,32.2305266 12.7489362,32.2305266 C13.4485106,32.2305266 14.5480851,32.1804121 15.5489362,32.0266125 C16.0987234,30.604398 17.0485106,29.3359831 18.1991489,28.7276969 C11.4995745,27.9154966 8.29957447,24.5647384 8.29957447,19.9956798 C8.29957447,18.0152936 9.14893617,16.1368644 10.5497872,14.5124638 C10.1004255,12.9381777 9.49957447,9.68937659 10.7506383,8.42096168 C13.7514894,8.42096168 15.5506383,10.4013479 16,10.907677 C17.4995745,10.3996198 19.1506383,10.0954767 20.8493617,10.0954767 C22.5991489,10.0954767 24.1991489,10.3996198 25.6987234,10.907677 C26.1480851,10.3996198 27.9489362,8.42096168 30.9480851,8.42096168 C32.1480851,9.63926211 31.5982979,12.9381777 31.0978723,14.5124638 C32.4987234,16.0867499 33.2987234,18.0152936 33.2987234,19.9956798 C33.2987234,24.5647384 30.1480851,27.9154966 23.4995745,28.6257398 C25.3497872,29.5900117 26.6502128,32.3307556 26.6502128,34.3612563 L26.6502128,38.9856137 C26.6502128,39.1376852 26.6008511,39.2897568 26.6008511,39.4418283 C34.4,36.7010844 40,29.1890958 40,20.3050071 C40,9.08627468 31.0502128,0 20,0 C8.94978723,0 0,9.08627468 0,20.3050071 Z" id="Path"></path>
            </g>
        </g>
    </g>
</svg>

<svg width="40" height="40" xmlns="http://www.w3.org/2000/svg">
    <path d="M0 20.305C0 29.847 6.45 37.767 15.15 40c-.1-.254-.15-.61-.15-.964v-3.453h-2.5c-1.35 0-2.6-.608-3.15-1.726-.65-1.219-.75-3.097-2.4-4.265-.5-.406-.1-.812.45-.762 1.05.304 1.899 1.016 2.699 2.08.8 1.066 1.15 1.32 2.65 1.32.7 0 1.8-.05 2.8-.203.55-1.423 1.5-2.691 2.65-3.3-6.7-.812-9.9-4.162-9.9-8.731 0-1.98.85-3.86 2.25-5.484-.449-1.574-1.05-4.823.202-6.091 3 0 4.8 1.98 5.249 2.487 1.5-.508 3.15-.813 4.85-.813 1.75 0 3.35.305 4.849.813.45-.508 2.25-2.487 5.25-2.487 1.2 1.218.65 4.517.149 6.091 1.4 1.575 2.2 3.503 2.2 5.484 0 4.569-3.15 7.92-9.798 8.63 1.85.964 3.15 3.705 3.15 5.735v4.625c0 .152-.05.304-.05.456C34.4 36.702 40 29.189 40 20.305 40 9.086 31.05 0 20 0S0 9.086 0 20.305z" fill="#000" fill-rule="nonzero"/>
</svg>
